bernoullicharts/arctan_x_flajolet__bound.svg

<?xml version="1.0" encoding="utf-8" standalone="no"?>
<!DOCTYPE svg PUBLIC "-//W3C//DTD SVG 1.1//EN"
  "http://www.w3.org/Graphics/SVG/1.1/DTD/svg11.dtd">
<!-- Created with matplotlib (https://matplotlib.org/) -->
<svg height="345.6pt" version="1.1" viewBox="0 0 460.8 345.6" width="460.8pt" xmlns="http://www.w3.org/2000/svg" xmlns:xlink="http://www.w3.org/1999/xlink">
 <defs>
  <style type="text/css">
*{stroke-linecap:butt;stroke-linejoin:round;}
  </style>
 </defs>
 <g id="figure_1">
  <g id="patch_1">
   <path d="M 0 345.6 
L 460.8 345.6 
L 460.8 0 
L 0 0 
z
" style="fill:#ffffff;"/>
  </g>
  <g id="axes_1">
   <g id="patch_2">
    <path d="M 57.6 307.584 
L 414.72 307.584 
L 414.72 41.472 
L 57.6 41.472 
z
" style="fill:#ffffff;"/>
   </g>
   <g id="matplotlib.axis_1">
    <g id="xtick_1">
     <g id="line2d_1">
      <defs>
       <path d="M 0 0 
L 0 3.5 
" id="mddf809ef11" style="stroke:#000000;stroke-width:0.8;"/>
      </defs>
      <g>
       <use style="stroke:#000000;stroke-width:0.8;" x="73.800255" xlink:href="#mddf809ef11" y="307.584"/>
      </g>
     </g>
     <g id="text_1">
      <text style="font-family:DejaVu Sans;font-size:10px;font-style:normal;font-weight:normal;text-anchor:middle;" transform="rotate(-0, 73.800255, 322.182437)" x="73.800255" y="322.182437">0.0</text>
     </g>
    </g>
    <g id="xtick_2">
     <g id="line2d_2">
      <g>
       <use style="stroke:#000000;stroke-width:0.8;" x="138.744153" xlink:href="#mddf809ef11" y="307.584"/>
      </g>
     </g>
     <g id="text_2">
      <text style="font-family:DejaVu Sans;font-size:10px;font-style:normal;font-weight:normal;text-anchor:middle;" transform="rotate(-0, 138.744153, 322.182437)" x="138.744153" y="322.182437">0.2</text>
     </g>
    </g>
    <g id="xtick_3">
     <g id="line2d_3">
      <g>
       <use style="stroke:#000000;stroke-width:0.8;" x="203.688051" xlink:href="#mddf809ef11" y="307.584"/>
      </g>
     </g>
     <g id="text_3">
      <text style="font-family:DejaVu Sans;font-size:10px;font-style:normal;font-weight:normal;text-anchor:middle;" transform="rotate(-0, 203.688051, 322.182437)" x="203.688051" y="322.182437">0.4</text>
     </g>
    </g>
    <g id="xtick_4">
     <g id="line2d_4">
      <g>
       <use style="stroke:#000000;stroke-width:0.8;" x="268.631949" xlink:href="#mddf809ef11" y="307.584"/>
      </g>
     </g>
     <g id="text_4">
      <text style="font-family:DejaVu Sans;font-size:10px;font-style:normal;font-weight:normal;text-anchor:middle;" transform="rotate(-0, 268.631949, 322.182437)" x="268.631949" y="322.182437">0.6</text>
     </g>
    </g>
    <g id="xtick_5">
     <g id="line2d_5">
      <g>
       <use style="stroke:#000000;stroke-width:0.8;" x="333.575847" xlink:href="#mddf809ef11" y="307.584"/>
      </g>
     </g>
     <g id="text_5">
      <text style="font-family:DejaVu Sans;font-size:10px;font-style:normal;font-weight:normal;text-anchor:middle;" transform="rotate(-0, 333.575847, 322.182437)" x="333.575847" y="322.182437">0.8</text>
     </g>
    </g>
    <g id="xtick_6">
     <g id="line2d_6">
      <g>
       <use style="stroke:#000000;stroke-width:0.8;" x="398.519745" xlink:href="#mddf809ef11" y="307.584"/>
      </g>
     </g>
     <g id="text_6">
      <text style="font-family:DejaVu Sans;font-size:10px;font-style:normal;font-weight:normal;text-anchor:middle;" transform="rotate(-0, 398.519745, 322.182437)" x="398.519745" y="322.182437">1.0</text>
     </g>
    </g>
    <g id="text_7">
     <text style="font-family:DejaVu Sans;font-size:10px;font-style:normal;font-weight:normal;text-anchor:middle;" transform="rotate(-0, 236.16, 335.860562)" x="236.16" y="335.860562">Input Coin's Heads Probability (λ)</text>
    </g>
   </g>
   <g id="matplotlib.axis_2">
    <g id="ytick_1">
     <g id="line2d_7">
      <defs>
       <path d="M 0 0 
L -3.5 0 
" id="m3156d628f3" style="stroke:#000000;stroke-width:0.8;"/>
      </defs>
      <g>
       <use style="stroke:#000000;stroke-width:0.8;" x="57.6" xlink:href="#m3156d628f3" y="295.488711"/>
      </g>
     </g>
     <g id="text_8">
      <text style="font-family:DejaVu Sans;font-size:10px;font-style:normal;font-weight:normal;text-anchor:end;" transform="rotate(-0, 50.6, 299.28793)" x="50.6" y="299.28793">0</text>
     </g>
    </g>
    <g id="ytick_2">
     <g id="line2d_8">
      <g>
       <use style="stroke:#000000;stroke-width:0.8;" x="57.6" xlink:href="#m3156d628f3" y="247.536142"/>
      </g>
     </g>
     <g id="text_9">
      <text style="font-family:DejaVu Sans;font-size:10px;font-style:normal;font-weight:normal;text-anchor:end;" transform="rotate(-0, 50.6, 251.335361)" x="50.6" y="251.335361">10</text>
     </g>
    </g>
    <g id="ytick_3">
     <g id="line2d_9">
      <g>
       <use style="stroke:#000000;stroke-width:0.8;" x="57.6" xlink:href="#m3156d628f3" y="199.583573"/>
      </g>
     </g>
     <g id="text_10">
      <text style="font-family:DejaVu Sans;font-size:10px;font-style:normal;font-weight:normal;text-anchor:end;" transform="rotate(-0, 50.6, 203.382792)" x="50.6" y="203.382792">20</text>
     </g>
    </g>
    <g id="ytick_4">
     <g id="line2d_10">
      <g>
       <use style="stroke:#000000;stroke-width:0.8;" x="57.6" xlink:href="#m3156d628f3" y="151.631004"/>
      </g>
     </g>
     <g id="text_11">
      <text style="font-family:DejaVu Sans;font-size:10px;font-style:normal;font-weight:normal;text-anchor:end;" transform="rotate(-0, 50.6, 155.430223)" x="50.6" y="155.430223">30</text>
     </g>
    </g>
    <g id="ytick_5">
     <g id="line2d_11">
      <g>
       <use style="stroke:#000000;stroke-width:0.8;" x="57.6" xlink:href="#m3156d628f3" y="103.678435"/>
      </g>
     </g>
     <g id="text_12">
      <text style="font-family:DejaVu Sans;font-size:10px;font-style:normal;font-weight:normal;text-anchor:end;" transform="rotate(-0, 50.6, 107.477653)" x="50.6" y="107.477653">40</text>
     </g>
    </g>
    <g id="ytick_6">
     <g id="line2d_12">
      <g>
       <use style="stroke:#000000;stroke-width:0.8;" x="57.6" xlink:href="#m3156d628f3" y="55.725866"/>
      </g>
     </g>
     <g id="text_13">
      <text style="font-family:DejaVu Sans;font-size:10px;font-style:normal;font-weight:normal;text-anchor:end;" transform="rotate(-0, 50.6, 59.525084)" x="50.6" y="59.525084">50</text>
     </g>
    </g>
    <g id="text_14">
     <text style="font-family:DejaVu Sans;font-size:10px;font-style:normal;font-weight:normal;text-anchor:middle;" transform="rotate(-90, 31.795312, 174.528)" x="31.795312" y="174.528">Coin Flips Needed</text>
    </g>
   </g>
   <g id="line2d_13">
    <path clip-path="url(#pe2aad00d60)" d="M 73.832727 290.693454 
L 77.112066 290.694287 
L 80.391405 290.696759 
L 83.670744 290.700876 
L 86.950083 290.706642 
L 90.229421 290.714059 
L 93.50876 290.723127 
L 96.788099 290.733843 
L 100.067438 290.7462 
L 103.346777 290.760193 
L 106.626116 290.775811 
L 109.905455 290.793043 
L 113.184793 290.811874 
L 116.464132 290.832289 
L 119.743471 290.85427 
L 123.02281 290.877795 
L 126.302149 290.902845 
L 129.581488 290.929395 
L 132.860826 290.957419 
L 136.140165 290.986892 
L 139.419504 291.017784 
L 142.698843 291.050066 
L 145.978182 291.083708 
L 149.257521 291.118675 
L 152.53686 291.154936 
L 155.816198 291.192457 
L 159.095537 291.231201 
L 162.374876 291.271133 
L 165.654215 291.312217 
L 168.933554 291.354415 
L 172.212893 291.397691 
L 175.492231 291.442005 
L 178.77157 291.487321 
L 182.050909 291.5336 
L 185.330248 291.580804 
L 188.609587 291.628895 
L 191.888926 291.677835 
L 195.168264 291.727586 
L 198.447603 291.778112 
L 201.726942 291.829375 
L 205.006281 291.881338 
L 208.28562 291.933968 
L 211.564959 291.987227 
L 214.844298 292.041082 
L 218.123636 292.0955 
L 221.402975 292.150448 
L 224.682314 292.205893 
L 227.961653 292.261806 
L 231.240992 292.318156 
L 234.520331 292.374914 
L 237.799669 292.432054 
L 241.079008 292.489548 
L 244.358347 292.547371 
L 247.637686 292.605499 
L 250.917025 292.663909 
L 254.196364 292.72258 
L 257.475702 292.78149 
L 260.755041 292.840621 
L 264.03438 292.899955 
L 267.313719 292.959476 
L 270.593058 293.019169 
L 273.872397 293.079019 
L 277.151736 293.139015 
L 280.431074 293.199145 
L 283.710413 293.2594 
L 286.989752 293.319771 
L 290.269091 293.380252 
L 293.54843 293.440838 
L 296.827769 293.501525 
L 300.107107 293.56231 
L 303.386446 293.623193 
L 306.665785 293.684173 
L 309.945124 293.745254 
L 313.224463 293.806438 
L 316.503802 293.867731 
L 319.78314 293.92914 
L 323.062479 293.990673 
L 326.341818 294.05234 
L 329.621157 294.114152 
L 332.900496 294.176124 
L 336.179835 294.23827 
L 339.459174 294.300607 
L 342.738512 294.363155 
L 346.017851 294.425933 
L 349.29719 294.488966 
L 352.576529 294.552278 
L 355.855868 294.615895 
L 359.135207 294.679849 
L 362.414545 294.74417 
L 365.693884 294.808893 
L 368.973223 294.874055 
L 372.252562 294.939697 
L 375.531901 295.005862 
L 378.81124 295.072595 
L 382.090579 295.139946 
L 385.369917 295.20797 
L 388.649256 295.276723 
L 391.928595 295.346268 
L 395.207934 295.416669 
L 398.487273 295.488 
" style="fill:none;stroke:#1f77b4;stroke-linecap:square;stroke-width:1.5;"/>
   </g>
   <g id="line2d_14">
    <path clip-path="url(#pe2aad00d60)" d="M 73.832727 288.871257 
L 77.112066 288.995933 
L 80.391405 288.890438 
L 83.670744 289.206925 
L 86.950083 289.053476 
L 90.229421 289.082248 
L 93.50876 289.053476 
L 96.788099 288.852076 
L 100.067438 288.727399 
L 103.346777 288.74658 
L 106.626116 289.101429 
L 109.905455 288.93839 
L 113.184793 288.947981 
L 116.464132 288.995933 
L 119.743471 288.861666 
L 123.02281 288.765761 
L 126.302149 288.842485 
L 129.581488 288.689037 
L 132.860826 288.708218 
L 136.140165 288.804123 
L 139.419504 288.756171 
L 142.698843 288.765761 
L 145.978182 288.765761 
L 149.257521 288.919209 
L 152.53686 289.178153 
L 155.816198 288.995933 
L 159.095537 288.832895 
L 162.374876 288.583541 
L 165.654215 288.650675 
L 168.933554 288.804123 
L 172.212893 288.324597 
L 175.492231 288.736989 
L 178.77157 288.391731 
L 182.050909 288.449274 
L 185.330248 288.38214 
L 188.609587 288.238283 
L 191.888926 288.506817 
L 195.168264 288.794533 
L 198.447603 288.334188 
L 201.726942 288.631494 
L 205.006281 288.689037 
L 208.28562 288.324597 
L 211.564959 288.18074 
L 214.844298 288.38214 
L 218.123636 288.449274 
L 221.402975 288.142378 
L 224.682314 288.353369 
L 227.961653 288.334188 
L 231.240992 288.516408 
L 234.520331 288.257464 
L 237.799669 288.18074 
L 241.079008 288.113606 
L 244.358347 288.305416 
L 247.637686 288.430093 
L 250.917025 287.710804 
L 254.196364 288.286235 
L 257.475702 287.490223 
L 260.755041 288.104016 
L 264.03438 287.854662 
L 267.313719 287.921796 
L 270.593058 287.643671 
L 273.872397 287.931386 
L 277.151736 287.643671 
L 280.431074 287.845072 
L 283.710413 287.413499 
L 286.989752 287.797119 
L 290.269091 287.873843 
L 293.54843 287.298412 
L 296.827769 287.518994 
L 300.107107 287.183326 
L 303.386446 287.643671 
L 306.665785 287.308003 
L 309.945124 287.212098 
L 313.224463 286.87643 
L 316.503802 286.627076 
L 319.78314 286.454447 
L 323.062479 286.828477 
L 326.341818 286.665438 
L 329.621157 286.68462 
L 332.900496 286.214684 
L 336.179835 286.847658 
L 339.459174 286.329771 
L 342.738512 286.569533 
L 346.017851 285.696797 
L 349.29719 285.504986 
L 352.576529 285.850245 
L 355.855868 284.689793 
L 359.135207 284.977508 
L 362.414545 283.999276 
L 365.693884 284.181495 
L 368.973223 283.922552 
L 372.252562 282.436022 
L 375.531901 281.764686 
L 378.81124 283.596474 
L 382.090579 281.179665 
L 385.369917 283.375892 
L 388.649256 283.634836 
L 391.928595 280.402833 
L 395.207934 276.815981 
L 398.487273 53.568 
" style="fill:none;stroke:#ff7f0e;stroke-linecap:square;stroke-width:1.5;"/>
   </g>
   <g id="patch_3">
    <path d="M 57.6 307.584 
L 57.6 41.472 
" style="fill:none;stroke:#000000;stroke-linecap:square;stroke-linejoin:miter;stroke-width:0.8;"/>
   </g>
   <g id="patch_4">
    <path d="M 414.72 307.584 
L 414.72 41.472 
" style="fill:none;stroke:#000000;stroke-linecap:square;stroke-linejoin:miter;stroke-width:0.8;"/>
   </g>
   <g id="patch_5">
    <path d="M 57.6 307.584 
L 414.72 307.584 
" style="fill:none;stroke:#000000;stroke-linecap:square;stroke-linejoin:miter;stroke-width:0.8;"/>
   </g>
   <g id="patch_6">
    <path d="M 57.6 41.472 
L 414.72 41.472 
" style="fill:none;stroke:#000000;stroke-linecap:square;stroke-linejoin:miter;stroke-width:0.8;"/>
   </g>
   <g id="text_15">
    <text style="font-family:DejaVu Sans;font-size:12px;font-style:normal;font-weight:normal;text-anchor:middle;" transform="rotate(-0, 236.16, 35.472)" x="236.16" y="35.472">Coin Flips for arctan(x)</text>
   </g>
   <g id="legend_1">
    <g id="patch_7">
     <path d="M 64.6 78.82825 
L 284.773438 78.82825 
Q 286.773438 78.82825 286.773438 76.82825 
L 286.773438 48.472 
Q 286.773438 46.472 284.773438 46.472 
L 64.6 46.472 
Q 62.6 46.472 62.6 48.472 
L 62.6 76.82825 
Q 62.6 78.82825 64.6 78.82825 
z
" style="fill:#ffffff;opacity:0.8;stroke:#cccccc;stroke-linejoin:miter;"/>
    </g>
    <g id="line2d_15">
     <path d="M 66.6 54.570437 
L 86.6 54.570437 
" style="fill:none;stroke:#1f77b4;stroke-linecap:square;stroke-width:1.5;"/>
    </g>
    <g id="line2d_16"/>
    <g id="text_16">
     <text style="font-family:DejaVu Sans;font-size:10px;font-style:normal;font-weight:normal;text-anchor:start;" transform="rotate(-0, 94.6, 58.070437)" x="94.6" y="58.070437">Coin Flip Lower Bound (Mendo)</text>
    </g>
    <g id="line2d_17">
     <path d="M 66.6 69.248562 
L 86.6 69.248562 
" style="fill:none;stroke:#ff7f0e;stroke-linecap:square;stroke-width:1.5;"/>
    </g>
    <g id="line2d_18"/>
    <g id="text_17">
     <text style="font-family:DejaVu Sans;font-size:10px;font-style:normal;font-weight:normal;text-anchor:start;" transform="rotate(-0, 94.6, 72.748562)" x="94.6" y="72.748562">Avg. Coins Flipped arctan(x) (Flajolet)</text>
    </g>
   </g>
  </g>
 </g>
 <defs>
  <clipPath id="pe2aad00d60">
   <rect height="266.112" width="357.12" x="57.6" y="41.472"/>
  </clipPath>
 </defs>
</svg>

<svg height="460.8" viewBox="0 0 460.8 345.6" width="614.4" xmlns="http://www.w3.org/2000/svg" xmlns:xlink="http://www.w3.org/1999/xlink"><defs><style>*{stroke-linecap:butt;stroke-linejoin:round}</style></defs><g id="figure_1"><path d="M0 345.6h460.8V0H0z" fill="#fff" id="patch_1"/><g id="axes_1"><path d="M57.6 307.584h357.12V41.472H57.6z" fill="#fff" id="patch_2"/><g id="matplotlib.axis_1"><g id="xtick_1"><g id="line2d_1"><defs><path d="M0 0v3.5" id="mddf809ef11" stroke="#000" stroke-width=".8"/></defs><use x="73.8" xlink:href="#mddf809ef11" y="307.584" stroke="#000" stroke-width=".8"/></g><text x="73.8" y="322.182" font-family="DejaVu Sans" font-size="10" font-weight="400" text-anchor="middle" id="text_1">0.0</text></g><g id="xtick_2"><use x="138.744" xlink:href="#mddf809ef11" y="307.584" stroke="#000" stroke-width=".8" id="line2d_2"/><text x="138.744" y="322.182" font-family="DejaVu Sans" font-size="10" font-weight="400" text-anchor="middle" id="text_2">0.2</text></g><g id="xtick_3"><use x="203.688" xlink:href="#mddf809ef11" y="307.584" stroke="#000" stroke-width=".8" id="line2d_3"/><text x="203.688" y="322.182" font-family="DejaVu Sans" font-size="10" font-weight="400" text-anchor="middle" id="text_3">0.4</text></g><g id="xtick_4"><use x="268.632" xlink:href="#mddf809ef11" y="307.584" stroke="#000" stroke-width=".8" id="line2d_4"/><text x="268.632" y="322.182" font-family="DejaVu Sans" font-size="10" font-weight="400" text-anchor="middle" id="text_4">0.6</text></g><g id="xtick_5"><use x="333.576" xlink:href="#mddf809ef11" y="307.584" stroke="#000" stroke-width=".8" id="line2d_5"/><text x="333.576" y="322.182" font-family="DejaVu Sans" font-size="10" font-weight="400" text-anchor="middle" id="text_5">0.8</text></g><g id="xtick_6"><use x="398.52" xlink:href="#mddf809ef11" y="307.584" stroke="#000" stroke-width=".8" id="line2d_6"/><text x="398.52" y="322.182" font-family="DejaVu Sans" font-size="10" font-weight="400" text-anchor="middle" id="text_6">1.0</text></g><text x="236.16" y="335.861" font-family="DejaVu Sans" font-size="10" font-weight="400" text-anchor="middle" id="text_7">Input Coin&apos;s Heads Probability (λ)</text></g><g id="matplotlib.axis_2"><g id="ytick_1"><g id="line2d_7"><defs><path d="M0 0h-3.5" id="m3156d628f3" stroke="#000" stroke-width=".8"/></defs><use x="57.6" xlink:href="#m3156d628f3" y="295.489" stroke="#000" stroke-width=".8"/></g><text x="50.6" y="299.288" font-family="DejaVu Sans" font-size="10" font-weight="400" text-anchor="end" id="text_8">0</text></g><g id="ytick_2"><use x="57.6" xlink:href="#m3156d628f3" y="247.536" stroke="#000" stroke-width=".8" id="line2d_8"/><text x="50.6" y="251.335" font-family="DejaVu Sans" font-size="10" font-weight="400" text-anchor="end" id="text_9">10</text></g><g id="ytick_3"><use x="57.6" xlink:href="#m3156d628f3" y="199.584" stroke="#000" stroke-width=".8" id="line2d_9"/><text x="50.6" y="203.383" font-family="DejaVu Sans" font-size="10" font-weight="400" text-anchor="end" id="text_10">20</text></g><g id="ytick_4"><use x="57.6" xlink:href="#m3156d628f3" y="151.631" stroke="#000" stroke-width=".8" id="line2d_10"/><text x="50.6" y="155.43" font-family="DejaVu Sans" font-size="10" font-weight="400" text-anchor="end" id="text_11">30</text></g><g id="ytick_5"><use x="57.6" xlink:href="#m3156d628f3" y="103.678" stroke="#000" stroke-width=".8" id="line2d_11"/><text x="50.6" y="107.478" font-family="DejaVu Sans" font-size="10" font-weight="400" text-anchor="end" id="text_12">40</text></g><g id="ytick_6"><use x="57.6" xlink:href="#m3156d628f3" y="55.726" stroke="#000" stroke-width=".8" id="line2d_12"/><text x="50.6" y="59.525" font-family="DejaVu Sans" font-size="10" font-weight="400" text-anchor="end" id="text_13">50</text></g><text transform="rotate(-90 31.795 174.528)" x="31.795" y="174.528" font-family="DejaVu Sans" font-size="10" font-weight="400" text-anchor="middle" id="text_14">Coin Flips Needed</text></g><path clip-path="url(#pe2aad00d60)" d="M73.833 290.693l3.28.001 3.278.003 3.28.004 3.28.006 3.278.007 3.28.01 3.28.01 3.278.012 3.28.014 3.28.016 3.278.017 3.28.019 3.28.02 3.278.022 3.28.024 3.28.025 3.278.026 3.28.028 3.28.03 3.279.03 3.279.033 3.28.034 3.279.035 3.279.036 3.28.037 3.279.04 3.279.04 3.28.04 3.279.042 3.279.044 3.28.044 3.279.045 3.279.047 3.28.047 3.279.048 3.279.049 3.28.05 3.279.05 3.279.051 3.28.052 3.279.053 3.279.053 3.28.054 3.279.055 3.279.054 3.28.056 3.279.056 3.279.056 3.28.057 3.279.057 3.279.058 3.28.057 3.279.058 3.279.059 3.28.059 3.279.058 3.279.06 3.28.059 3.279.06 3.28.06 3.278.059 3.28.06 3.28.06 3.278.06 3.28.06 3.28.061 3.278.06 3.28.062 3.28.06 3.278.061 3.28.061 3.28.061 3.278.061 3.28.062 3.28.061 3.278.062 3.28.061 3.28.062 3.278.062 3.28.062 3.28.063 3.279.062 3.279.063 3.28.063 3.279.063 3.279.064 3.28.064 3.279.064 3.279.065 3.28.065 3.279.066 3.279.066 3.28.067 3.279.067 3.279.068 3.28.069 3.279.07 3.279.07 3.28.071" fill="none" stroke="#1f77b4" stroke-linecap="square" stroke-width="1.5" id="line2d_13"/><path clip-path="url(#pe2aad00d60)" d="M73.833 288.871l3.28.125 3.278-.106 3.28.317 3.28-.154 3.278.03 3.28-.03 3.28-.2 3.278-.126 3.28.02 3.28.354 3.278-.163 3.28.01 3.28.048 3.278-.134 3.28-.096 3.28.076 3.278-.153 3.28.02 3.28.095 3.279-.048 3.279.01h3.28l3.279.153 3.279.26 3.28-.183 3.279-.163 3.279-.25 3.28.068 3.279.153 3.279-.48 3.28.413 3.279-.345 3.279.057 3.28-.067 3.279-.144 3.279.269 3.28.288 3.279-.46 3.279.296 3.28.058 3.279-.364 3.279-.144 3.28.201 3.279.067 3.279-.307 3.28.211 3.279-.019 3.279.182 3.28-.259 3.279-.076 3.279-.067 3.28.191 3.279.125 3.279-.72 3.28.576 3.279-.796 3.279.614 3.28-.25 3.279.068 3.28-.278 3.278.287 3.28-.287 3.28.201 3.278-.432 3.28.384 3.28.077 3.278-.576 3.28.221 3.28-.336 3.278.46 3.28-.335 3.28-.096 3.278-.336 3.28-.249 3.28-.173 3.278.374 3.28-.163 3.28.02 3.278-.47 3.28.633 3.28-.518 3.279.24 3.279-.873 3.28-.192 3.279.345 3.279-1.16 3.28.288 3.279-.979 3.279.182 3.28-.258 3.279-1.487 3.279-.671 3.28 1.831 3.279-2.416 3.279 2.196 3.28.259 3.279-3.232 3.279-3.587 3.28-223.248" fill="none" stroke="#ff7f0e" stroke-linecap="square" stroke-width="1.5" id="line2d_14"/><path d="M57.6 307.584V41.472" fill="none" stroke="#000" stroke-linecap="square" stroke-width=".8" id="patch_3"/><path d="M414.72 307.584V41.472" fill="none" stroke="#000" stroke-linecap="square" stroke-width=".8" id="patch_4"/><path d="M57.6 307.584h357.12" fill="none" stroke="#000" stroke-linecap="square" stroke-width=".8" id="patch_5"/><path d="M57.6 41.472h357.12" fill="none" stroke="#000" stroke-linecap="square" stroke-width=".8" id="patch_6"/><text x="236.16" y="35.472" font-family="DejaVu Sans" font-size="12" font-weight="400" text-anchor="middle" id="text_15">Coin Flips for arctan(x)</text><g id="legend_1"><path d="M64.6 78.828h220.173q2 0 2-2V48.472q0-2-2-2H64.6q-2 0-2 2v28.356q0 2 2 2z" fill="#fff" opacity=".8" stroke="#ccc" id="patch_7"/><path d="M66.6 54.57h20" fill="none" stroke="#1f77b4" stroke-linecap="square" stroke-width="1.5" id="line2d_15"/><text x="94.6" y="58.07" font-family="DejaVu Sans" font-size="10" font-weight="400" id="text_16">Coin Flip Lower Bound (Mendo)</text><path d="M66.6 69.249h20" fill="none" stroke="#ff7f0e" stroke-linecap="square" stroke-width="1.5" id="line2d_17"/><text x="94.6" y="72.749" font-family="DejaVu Sans" font-size="10" font-weight="400" id="text_17">Avg. Coins Flipped arctan(x) (Flajolet)</text></g></g></g><defs><clipPath id="pe2aad00d60"><path d="M57.6 41.472h357.12v266.112H57.6z"/></clipPath></defs></svg>
